assets/icons/standard/scheduling_policy.svg

<?xml version="1.0"?><svg xmlns="http://www.w3.org/2000/svg" width="100" height="100" viewBox="0 0 100 100"><title></title><path d="m22 74a5.7 5.7 0 0 0 5.6 6s32.4 0.3 32.3 0l-0.7-1.4a7.7 7.7 0 0 1-1.9-4.8 8.3 8.3 0 0 1 1.8-4.8 7.4 7.4 0 0 1 2.2-4.8 8.5 8.5 0 0 1 4.5-2h0.1a7.7 7.7 0 0 1 4.8-1.9 8.3 8.3 0 0 1 4.8 1.8 11 11 0 0 1 2.5 0.6v-18.7c0-1.8-2-2.1-2-2.1h-52a2 2 0 0 0-2 2z m46.1 9.1l-5.2 7.4-1.3-3.5h-3.5l4.5-6.1a10.2 10.2 0 0 0 2.5 0.8 1.5 1.5 0 0 0 0.6 0.1 2.2 2.2 0 0 0 0.5 0.3 6.5 6.5 0 0 0 1.9 1z m8.4-2.3a10.2 10.2 0 0 1-2.5 0.8 1.7 1.7 0 0 1-0.7 0.1 2.2 2.2 0 0 1-0.5 0.3 10.5 10.5 0 0 1-1.9 1.2l5.2 7.3 1.3-3.5h3.5z m-7-11.6a3.1 3.1 0 1 0 3.1 3.1 3.1 3.1 0 0 0-3.1-3.1z m8.5 3.1c0 1.1-1.2 1.9-1.5 2.8s-0.2 2.4-0.9 3.1-2.1 0.5-3.1 0.9-1.8 1.5-2.8 1.5-1.9-1.2-2.8-1.5-2.4-0.2-3.1-0.9-0.5-2.1-0.9-3.1-1.5-1.8-1.5-2.8 1.2-1.9 1.5-2.8 0.2-2.4 0.9-3.1 2.1-0.5 3.1-0.9 1.8-1.5 2.8-1.5 1.9 1.2 2.8 1.5 2.4 0.2 3.1 0.9 0.5 2.1 0.9 3.1 1.5 1.8 1.5 2.8z m-2.7 0a5.8 5.8 0 0 0-11.6 0 5.7 5.7 0 0 0 5.8 5.8 5.7 5.7 0 0 0 5.8-5.8z m-3.3-46.3h-5v-2a4 4 0 0 0-8 0v2h-18v-2a4 4 0 0 0-8 0v2h-5a6 6 0 0 0-6 6v2a2 2 0 0 0 2 2h52a2 2 0 0 0 2-2v-2a6 6 0 0 0-6-6z m-24 44.2c0 1.4-0.7 2.6-1.7 2.6h-17.3c-0.9 0-1.8-1.2-1.8-2.6v-2.6c0-1.4 0.8-2.6 1.8-2.6h17.2c0.9 0 1.8 1.2 1.8 2.6z m8.9-15.8c0 1.4-0.8 2.6-1.9 2.6h-25.8c-1.1 0-2-1.2-2-2.6v-2.6c0-1.4 0.9-2.6 2-2.6h25.8c1.1 0 2 1.2 2 2.6v2.6z" fill="#fff"></path></svg>

<svg data-name="Layer 1" xmlns="http://www.w3.org/2000/svg" width="100" height="100" viewBox="0 0 100 100"><path d="M22,74a5.69,5.69,0,0,0,5.6,6s32.4.3,32.3,0l-.7-1.4a7.67,7.67,0,0,1-1.9-4.8A8.31,8.31,0,0,1,59.1,69a7.39,7.39,0,0,1,2.2-4.8,8.52,8.52,0,0,1,4.5-2h.1a7.67,7.67,0,0,1,4.8-1.9,8.31,8.31,0,0,1,4.8,1.8,11,11,0,0,1,2.5.6V44c0-1.8-2-2.1-2-2.1H24a2,2,0,0,0-2,2Z" fill="#fff"/><path d="M68.1,83.1l-5.2,7.4L61.6,87H58.1l4.5-6.1a10.19,10.19,0,0,0,2.5.8,1.49,1.49,0,0,0,.6.1,2.19,2.19,0,0,0,.5.3A6.49,6.49,0,0,0,68.1,83.1Zm8.4-2.3a10.19,10.19,0,0,1-2.5.8,1.7,1.7,0,0,1-.7.1,2.19,2.19,0,0,1-.5.3,10.46,10.46,0,0,1-1.9,1.2l5.2,7.3L77.4,87h3.5Zm-7-11.6a3.1,3.1,0,1,0,3.1,3.1A3.12,3.12,0,0,0,69.5,69.2ZM78,72.3c0,1.1-1.2,1.9-1.5,2.8s-.2,2.4-.9,3.1-2.1.5-3.1.9-1.8,1.5-2.8,1.5-1.9-1.2-2.8-1.5-2.4-.2-3.1-.9-.5-2.1-.9-3.1-1.5-1.8-1.5-2.8,1.2-1.9,1.5-2.8.2-2.4.9-3.1,2.1-.5,3.1-.9S68.7,64,69.7,64s1.9,1.2,2.8,1.5,2.4.2,3.1.9.5,2.1.9,3.1S78,71.3,78,72.3Zm-2.7,0a5.8,5.8,0,0,0-11.6,0,5.68,5.68,0,0,0,5.8,5.8A5.74,5.74,0,0,0,75.3,72.3Z" fill="#fff"/><path d="M72,26H67V24a4,4,0,0,0-8,0v2H41V24a4,4,0,0,0-8,0v2H28a6,6,0,0,0-6,6v2a2,2,0,0,0,2,2H76a2,2,0,0,0,2-2V32A6,6,0,0,0,72,26Z" fill="#fff"/><path d="M48,70.2c0,1.4-.7,2.6-1.7,2.6H29c-.9,0-1.8-1.2-1.8-2.6V67.6c0-1.4.8-2.6,1.8-2.6H46.2c.9,0,1.8,1.2,1.8,2.6Z" fill="#fff"/><path d="M56.9,54.4c0,1.4-.8,2.6-1.9,2.6H29.2c-1.1,0-2-1.2-2-2.6V51.8c0-1.4.9-2.6,2-2.6H55c1.1,0,2,1.2,2,2.6v2.6Z" fill="#fff"/></svg>
